X: 713
T: Courting them all
C: anon.
O: Ireland
B: Francis O'Neill: "The Dance Music of Ireland" (1907) no. 713
R: Reel
Z: Transcribed by Frank Nordberg - http://www.musicaviva.com
F: http://www.musicaviva.com/abc/tunes/ireland/oneill-1001/oneill-1001-071
3.abc
M: C|
L: 1/8
K: D
F|DF (3(ABc) d2(3(ABc)|d2(fd) ecAc|d2(Ac) BAGF|EFGE FDDE|
DF (3(ABc) d2(3(ABc)|d2(fd) ecAc|d2(Ac) BAGF|EFGE FDD2||c|d2(fd) (3(fga)
(fd)|g2bg ecAc|
d2fd (3(fga) fd|efge fddc|d2f(d (3(f)ga) (fd)|g2bg ecAc|d2(Ac) BAGF|EFGE
FDD2|]
W:
W:
W: From Musica Viva - http://www.musicaviva.com
W: the Internet center for free sheet music downloads.


